austria/municipalities/20640.svg

<?xml version="1.0" encoding="UTF-8" standalone="no"?>
<!-- Created with Inkscape (http://www.inkscape.org/) -->
<svg
   xmlns:dc="http://purl.org/dc/elements/1.1/"
   xmlns:cc="http://web.resource.org/cc/"
   xmlns:rdf="http://www.w3.org/1999/02/22-rdf-syntax-ns#"
   xmlns:svg="http://www.w3.org/2000/svg"
   xmlns="http://www.w3.org/2000/svg"
   xmlns:xlink="http://www.w3.org/1999/xlink"
   xmlns:sodipodi="http://inkscape.sourceforge.net/DTD/sodipodi-0.dtd"
   xmlns:inkscape="http://www.inkscape.org/namespaces/inkscape"
   width="690.09003"
   height="780.35999"
   id="svg1332"
   sodipodi:version="0.32"
   inkscape:version="0.43"
   sodipodi:docname="wappen_winklern.svg"
   version="1.0"
   sodipodi:docbase="M:\wappen">
  <defs
     id="defs3" />
  <sodipodi:namedview
     inkscape:document-units="mm"
     id="base"
     pagecolor="#ffffff"
     bordercolor="#666666"
     borderopacity="1.0"
     inkscape:pageopacity="0.0"
     inkscape:pageshadow="2"
     inkscape:zoom="0.70710678"
     inkscape:cx="274.33545"
     inkscape:cy="262.00496"
     inkscape:current-layer="layer1"
     inkscape:window-width="1280"
     inkscape:window-height="977"
     inkscape:window-x="-4"
     inkscape:window-y="-4"
     showgrid="false"
     showguides="true"
     inkscape:guide-bbox="true" />
  <metadata
     id="metadata4">
    <rdf:RDF>
      <cc:Work
         rdf:about="">
        <dc:format>image/svg+xml</dc:format>
        <dc:type
           rdf:resource="http://purl.org/dc/dcmitype/StillImage" />
        <dc:title>Wappen Gemeinde Winklern</dc:title>
        <dc:date>31. Jan 2006</dc:date>
        <dc:creator>
          <cc:Agent>
            <dc:title>Michael Glanznig</dc:title>
          </cc:Agent>
        </dc:creator>
        <dc:rights>
          <cc:Agent>
            <dc:title />
          </cc:Agent>
        </dc:rights>
        <dc:description>Winklern, coat of arms</dc:description>
        <cc:license
           rdf:resource="http://creativecommons.org/licenses/by-sa/2.0/" />
      </cc:Work>
      <cc:License
         rdf:about="http://creativecommons.org/licenses/by-sa/2.0/at/">
        <cc:permits
           rdf:resource="http://web.resource.org/cc/Reproduction" />
        <cc:permits
           rdf:resource="http://web.resource.org/cc/Distribution" />
        <cc:requires
           rdf:resource="http://web.resource.org/cc/Notice" />
        <cc:requires
           rdf:resource="http://web.resource.org/cc/Attribution" />
        <cc:permits
           rdf:resource="http://web.resource.org/cc/DerivativeWorks" />
        <cc:requires
           rdf:resource="http://web.resource.org/cc/ShareAlike" />
      </cc:License>
    </rdf:RDF>
  </metadata>
  <g
     inkscape:label="Layer 1"
     inkscape:groupmode="layer"
     id="layer1">
    <a
       id="a3977" />
    <g
       id="g4061">
      <path
         sodipodi:nodetypes="ccccc"
         id="path3970"
         d="M 17.57143,22.86566 L 670.42857,24.07556 L 619.90272,562.89329 C 583.12179,831.9293 92.52599,835.0636 65.56496,562.94834 L 17.57143,22.86566 z "
         style="fill:#dd0104;fill-opacity:1;fill-rule:evenodd;stroke:#000000;stroke-width:12.81259823;stroke-linecap:butt;stroke-linejoin:miter;stroke-miterlimit:4;stroke-dasharray:none;stroke-opacity:1" />
      <path
         id="path4199"
         d="M 336.75,639.875 C 291.23106,640.10809 245.46076,642.0951 203.875,645.96875 C 162.69661,649.80447 133.20743,654.42883 109.34375,660.8125 L 107.03125,664.03125 C 210.44564,795.25659 471.57668,792.58025 576.6875,659.21875 C 523.27138,646.33534 430.51291,639.39487 336.75,639.875 z "
         style="fill:#068751;fill-opacity:1;fill-rule:evenodd;stroke:#000000;stroke-width:6.25;stroke-linecap:butt;stroke-linejoin:miter;stroke-miterlimit:4;stroke-dasharray:none;stroke-opacity:1" />
      <g
         id="g4046">
        <path
           style="fill:#fcd43e;fill-opacity:1;stroke:#000000;stroke-width:6.30114794;stroke-miterlimit:4;stroke-dashoffset:0;stroke-opacity:1"
           d="M 232.17646,80.168312 L 272.46008,80.610254 L 272.85821,124.21515 L 318.70224,124.39192 L 318.42422,80.168312 L 366.78011,80.521865 L 366.87622,124.03837 L 411.27188,124.03837 L 411.74208,80.168312 L 457.40933,80.168312 L 457.40933,640.55167 L 232.17646,640.55167 L 232.17646,80.168312 z "
           id="rect3094"
           sodipodi:nodetypes="ccccccccccccc" />
        <g
           id="g5728"
           transform="matrix(0.724795,0,0,0.655136,78.9035,222.2491)">
          <path
             sodipodi:nodetypes="css"
             id="path4847"
             d="M 284.52139,639.4365 C 284.69104,603.55228 290.64528,538.62886 336.70651,538.06485 C 383.81195,537.48805 389.1216,594.37781 389.54495,639.52781"
             style="fill:#000000;fill-opacity:1;stroke:#000000;stroke-width:5.31855059;stroke-miterlimit:4;stroke-dashoffset:0;stroke-opacity:1" />
          <path
             sodipodi:nodetypes="css"
             id="path4850"
             d="M 261.2185,640.80241 C 261.46427,595.76142 270.0899,514.27116 336.8167,513.56323 C 405.05623,512.83924 412.74808,584.24586 413.36136,640.91701"
             style="fill:none;fill-opacity:1;stroke:#000000;stroke-width:7.17179585;stroke-miterlimit:4;stroke-dashoffset:0;stroke-opacity:1" />
          <path
             sodipodi:nodetypes="ccccc"
             id="rect5725"
             d="M 313.57365,507.50525 L 360.27831,507.50525 L 355.9337,539.61249 L 317.91826,539.61249 L 313.57365,507.50525 z "
             style="fill:#fcd43e;fill-opacity:1;stroke:#000000;stroke-width:5.02262688;stroke-miterlimit:4;stroke-dashoffset:0;stroke-opacity:1" />
        </g>
        <g
           id="g8375"
           transform="translate(2,16)">
          <rect
             y="316.18921"
             x="271.67874"
             height="50.11491"
             width="31.256899"
             id="rect5733"
             style="opacity:1;fill:none;fill-opacity:1;stroke:#000000;stroke-width:3.75;stroke-miterlimit:4;stroke-dasharray:none;stroke-dashoffset:0;stroke-opacity:1" />
          <rect
             y="314.84146"
             x="339.13065"
             height="51.396244"
             width="28.845451"
             id="rect6608"
             style="opacity:1;fill:none;fill-opacity:1;stroke:#000000;stroke-width:3.75;stroke-miterlimit:4;stroke-dasharray:none;stroke-dashoffset:0;stroke-opacity:1" />
        </g>
        <g
           id="g3994">
          <path
             transform="matrix(0.524958,0,0,0.508523,327.0281,139.5543)"
             d="M -86.267024,141.13545 L -145.51169,141.39925 L -116.11781,89.959964 L -86.267024,141.13545 z "
             inkscape:randomized="0"
             inkscape:rounded="0"
             inkscape:flatsided="true"
             sodipodi:arg2="1.5663437"
             sodipodi:arg1="0.51914611"
             sodipodi:r2="17.102631"
             sodipodi:r1="34.205261"
             sodipodi:cy="124.16489"
             sodipodi:cx="-115.96551"
             sodipodi:sides="3"
             id="path6610"
             style="fill:none;fill-opacity:1;stroke:#000000;stroke-width:7.25794506;stroke-miterlimit:4;stroke-dasharray:none;stroke-dashoffset:0;stroke-opacity:1"
             sodipodi:type="star" />
          <use
             height="780.35999"
             width="690.09003"
             transform="translate(36,0)"
             id="use1351"
             xlink:href="#path6610"
             y="0"
             x="0" />
          <use
             height="780.35999"
             width="690.09003"
             transform="translate(72,0)"
             id="use1353"
             xlink:href="#path6610"
             y="0"
             x="0" />
          <path
             transform="translate(2,2)"
             d="M 311.83409 156.6918 A 12.374369 12.374369 0 1 1  287.08535,156.6918 A 12.374369 12.374369 0 1 1  311.83409 156.6918 z"
             sodipodi:ry="12.374369"
             sodipodi:rx="12.374369"
             sodipodi:cy="156.6918"
             sodipodi:cx="299.45972"
             id="path1370"
             style="fill:none;fill-opacity:0.75;fill-rule:evenodd;stroke:#000000;stroke-width:3.75;stroke-linecap:butt;stroke-linejoin:miter;stroke-miterlimit:4;stroke-dasharray:none;stroke-opacity:1"
             sodipodi:type="arc" />
        </g>
      </g>
    </g>
  </g>
</svg>

<svg xmlns="http://www.w3.org/2000/svg" xmlns:xlink="http://www.w3.org/1999/xlink" width="690.09" height="780.36" version="1.0"><path d="m17.571 22.866 652.858 1.21-50.526 538.817c-36.781 269.036-527.377 272.17-554.338.055L17.571 22.866z" style="fill:#dd0104;fill-opacity:1;fill-rule:evenodd;stroke:#000;stroke-width:12.81259823;stroke-linecap:butt;stroke-linejoin:miter;stroke-miterlimit:4;stroke-dasharray:none;stroke-opacity:1"/><path d="M336.75 639.875c-45.519.233-91.29 2.22-132.875 6.094-41.178 3.835-70.668 8.46-94.531 14.843l-2.313 3.22c103.415 131.225 364.546 128.548 469.656-4.813-53.416-12.884-146.174-19.824-239.937-19.344z" style="fill:#068751;fill-opacity:1;fill-rule:evenodd;stroke:#000;stroke-width:6.25;stroke-linecap:butt;stroke-linejoin:miter;stroke-miterlimit:4;stroke-dasharray:none;stroke-opacity:1"/><path style="fill:#fcd43e;fill-opacity:1;stroke:#000;stroke-width:6.30114794;stroke-miterlimit:4;stroke-dashoffset:0;stroke-opacity:1" d="m232.176 80.168 40.284.442.398 43.605 45.844.177-.278-44.224 48.356.354.096 43.516h44.396l.47-43.87h45.667v560.384H232.176V80.168z"/><path d="M284.521 639.437c.17-35.885 6.124-100.808 52.186-101.372 47.105-.577 52.415 56.313 52.838 101.463" style="fill:#000;fill-opacity:1;stroke:#000;stroke-width:5.31855059;stroke-miterlimit:4;stroke-dashoffset:0;stroke-opacity:1" transform="matrix(.7248 0 0 .65514 78.903 222.25)"/><path d="M261.219 640.802c.245-45.04 8.87-126.53 75.598-127.239 68.24-.724 75.931 70.683 76.544 127.354" style="fill:none;fill-opacity:1;stroke:#000;stroke-width:7.17179585;stroke-miterlimit:4;stroke-dashoffset:0;stroke-opacity:1" transform="matrix(.7248 0 0 .65514 78.903 222.25)"/><path d="M313.574 507.505h46.704l-4.344 32.107h-38.016l-4.344-32.107z" style="fill:#fcd43e;fill-opacity:1;stroke:#000;stroke-width:5.02262688;stroke-miterlimit:4;stroke-dashoffset:0;stroke-opacity:1" transform="matrix(.7248 0 0 .65514 78.903 222.25)"/><g><path style="opacity:1;fill:none;fill-opacity:1;stroke:#000;stroke-width:3.75;stroke-miterlimit:4;stroke-dasharray:none;stroke-dashoffset:0;stroke-opacity:1" d="M271.679 316.189h31.257v50.115h-31.257zM339.131 314.841h28.845v51.396h-28.845z" transform="translate(2 16)"/></g><g><path transform="matrix(.52496 0 0 .50852 327.028 139.554)" d="m-86.267 141.135-59.245.264 29.394-51.439 29.851 51.175z" id="a" style="fill:none;fill-opacity:1;stroke:#000;stroke-width:7.25794506;stroke-miterlimit:4;stroke-dasharray:none;stroke-dashoffset:0;stroke-opacity:1"/><use height="780.36" width="690.09" transform="translate(36)" xlink:href="#a"/><use height="780.36" width="690.09" transform="translate(72)" xlink:href="#a"/><path transform="translate(2 2)" d="M311.834 156.692a12.374 12.374 0 1 1-24.749 0 12.374 12.374 0 1 1 24.75 0z" style="fill:none;fill-opacity:.75;fill-rule:evenodd;stroke:#000;stroke-width:3.75;stroke-linecap:butt;stroke-linejoin:miter;stroke-miterlimit:4;stroke-dasharray:none;stroke-opacity:1"/></g></svg>
